img/support.svg

<svg width="48" height="48" viewBox="0 0 48 48" fill="none" xmlns="http://www.w3.org/2000/svg">
<path d="M28.6914 22.5C29.2089 22.5 29.6289 22.08 29.6289 21.5625C29.6289 21.045 29.2089 20.625 28.6914 20.625C28.1729 20.625 27.7539 21.045 27.7539 21.5625C27.7539 22.08 28.1729 22.5 28.6914 22.5Z" fill="#17696A"/>
<path d="M19.3164 22.5C19.8339 22.5 20.2539 22.08 20.2539 21.5625C20.2539 21.045 19.8339 20.625 19.3164 20.625C18.7979 20.625 18.3789 21.045 18.3789 21.5625C18.3789 22.08 18.7979 22.5 19.3164 22.5Z" fill="#17696A"/>
<path d="M3.375 45.0048V47.0625C3.375 47.5803 3.79468 48 4.3125 48H43.6875C44.2053 48 44.625 47.5803 44.625 47.0625V45.0029C44.625 41.2745 42.5306 37.8289 38.6547 36.4142C40.0554 35.1907 40.9069 33.3984 40.9069 31.4604C40.9069 30.943 40.4872 30.5229 39.9694 30.5229C37.7142 30.5229 35.8136 28.9281 35.3558 26.8125H38.0654C39.6145 26.8125 40.875 25.5509 40.875 24V19.6875C40.875 18.4647 40.0909 17.4221 39 17.0358V15C39 6.72913 32.2723 0 24.0029 0C15.7145 0 9 6.70789 9 15V17.0372C7.90906 17.425 7.125 18.4673 7.125 19.6875V24C7.125 25.5509 8.38806 26.8125 9.94043 26.8125H12.6442C12.1871 28.9281 10.2883 30.5229 8.0354 30.5229C7.51758 30.5229 7.0979 30.943 7.0979 31.4604C7.0979 33.401 7.95154 35.1951 9.35596 36.4193C5.495 37.8351 3.375 41.3156 3.375 45.0048ZM38.9528 32.3196C38.6609 33.8917 37.5791 35.2262 36.0674 35.8257L30.3878 35.0881L29.781 32.7166C31.5516 31.6578 32.9626 30.1619 33.9082 28.4059C34.7904 30.4501 36.6852 31.9662 38.9528 32.3196ZM31.5168 16.875C28.927 16.875 26.8198 14.7415 26.8198 12.119C26.8198 11.6012 26.4001 11.1815 25.8823 11.1815C25.3649 11.1815 24.9448 11.6012 24.9448 12.119C24.9448 14.7415 22.8376 16.875 20.2471 16.875H14.6279C14.6279 11.7056 18.8335 7.5 24.0029 7.5C29.1823 7.5 33.3779 11.6917 33.3779 16.875H31.5168ZM14.625 18.75H20.2471C22.6362 18.75 24.7317 17.4576 25.8823 15.5292C27.033 17.4576 29.1281 18.75 31.5168 18.75H33.375V23.0625C33.375 26.6085 31.411 29.8118 28.2499 31.422C26.9271 32.0958 25.4982 32.4375 24.0029 32.4375C22.5117 32.4375 21.0872 32.0984 19.7681 31.4297C18.8829 30.9811 18.0769 30.3966 17.3719 29.6913C15.6006 27.921 14.625 25.5667 14.625 23.0625V18.75ZM19.9611 33.5647C21.2446 34.0605 22.5996 34.3125 24.0029 34.3125C25.4117 34.3125 26.7719 34.0583 28.0609 33.5574L28.656 35.8846C28.3436 38.2057 26.3745 39.9375 24.0121 39.9375C21.65 39.9375 19.6809 38.2064 19.3678 35.8861L19.9611 33.5647ZM39 24C39 24.5171 38.5807 24.9375 38.0654 24.9375H35.25V18.75H38.0654C38.5807 18.75 39 19.1704 39 19.6875V24ZM24.0029 1.875C31.2385 1.875 37.125 7.76294 37.125 15V16.875H35.2529C35.2529 10.6593 30.2223 5.625 24.0029 5.625C17.7997 5.625 12.7529 10.6718 12.7529 16.875H10.875V15C10.875 7.74829 16.7472 1.875 24.0029 1.875ZM9 24V19.6875C9 19.1715 9.42114 18.7511 9.94043 18.75H12.75V24.9375H9.94043C9.42188 24.9375 9 24.5171 9 24ZM14.0933 28.4033C14.6071 29.3525 15.2611 30.2329 16.0463 31.0173C16.7069 31.6783 17.4434 32.2496 18.2402 32.7253L17.6364 35.0885L11.941 35.8275C10.4275 35.2277 9.34424 33.8925 9.052 32.3196C11.3188 31.9658 13.2125 30.4482 14.0933 28.4033ZM11.8418 37.7307L11.9451 37.7175H11.9458C11.9465 37.7172 11.9473 37.7172 11.948 37.7172L17.6781 36.9738C18.4373 39.7947 20.9956 41.8125 24.0121 41.8125C27.0286 41.8125 29.5865 39.7947 30.3453 36.9734C30.631 37.0107 28.8402 36.7782 36.1813 37.7311C40.2913 38.265 42.75 41.3452 42.75 45.0029V46.125H5.25V45.0048C5.25 41.4155 7.70728 38.2676 11.8418 37.7307Z" fill="#17696A"/>
<path d="M21.497 28.9439C22.284 29.3148 23.1273 29.5031 24.003 29.5031C24.8584 29.5031 25.685 29.3225 26.4606 28.9666C26.9312 28.7509 27.1374 28.1942 26.9213 27.7237C26.7056 27.2531 26.1489 27.0465 25.6784 27.2626C25.1499 27.505 24.5863 27.6281 24.0033 27.6281C23.406 27.6281 22.8314 27.5003 22.2964 27.248C21.828 27.0271 21.2696 27.2278 21.0487 27.6962C20.8279 28.1646 21.0286 28.7234 21.497 28.9439Z" fill="#17696A"/>
<path d="M32.4414 43.6875H36.1914C36.7092 43.6875 37.1289 43.2678 37.1289 42.75C37.1289 42.2322 36.7092 41.8125 36.1914 41.8125H32.4414C31.9236 41.8125 31.5039 42.2322 31.5039 42.75C31.5039 43.2678 31.9236 43.6875 32.4414 43.6875Z" fill="#17696A"/>
<path d="M39.9375 41.8125C40.455 41.8125 40.875 42.2325 40.875 42.75C40.875 43.2675 40.455 43.6875 39.9375 43.6875C39.42 43.6875 39 43.2675 39 42.75C39 42.2325 39.42 41.8125 39.9375 41.8125Z" fill="#17696A"/>
</svg>

<svg width="48" height="48" fill="none" xmlns="http://www.w3.org/2000/svg"><path d="M28.691 22.5a.938.938 0 100-1.876.938.938 0 000 1.876zM19.316 22.5a.938.938 0 100-1.876.938.938 0 000 1.876z" fill="#17696A"/><path d="M3.375 45.005v2.057c0 .518.42.938.938.938h39.374c.518 0 .938-.42.938-.938v-2.06c0-3.727-2.094-7.173-5.97-8.588a6.578 6.578 0 002.252-4.954.938.938 0 00-.938-.937 4.73 4.73 0 01-4.613-3.71h2.71c1.548 0 2.809-1.262 2.809-2.813v-4.313A2.817 2.817 0 0039 17.037V15c0-8.27-6.728-15-14.997-15C15.714 0 9 6.708 9 15v2.037a2.819 2.819 0 00-1.875 2.65V24a2.817 2.817 0 002.815 2.813h2.704a4.726 4.726 0 01-4.609 3.71.938.938 0 00-.937.937c0 1.941.854 3.735 2.258 4.96-3.861 1.415-5.981 4.896-5.981 8.585zM38.953 32.32a4.698 4.698 0 01-2.886 3.506l-5.68-.738-.606-2.371a11.214 11.214 0 004.127-4.311 6.628 6.628 0 005.045 3.914zm-7.436-15.445c-2.59 0-4.697-2.133-4.697-4.756a.937.937 0 10-1.875 0c0 2.623-2.107 4.756-4.698 4.756h-5.62c0-5.17 4.207-9.375 9.376-9.375a9.37 9.37 0 019.375 9.375h-1.861zM14.625 18.75h5.622c2.39 0 4.485-1.292 5.635-3.22 1.151 1.928 3.246 3.22 5.635 3.22h1.858v4.313a9.341 9.341 0 01-5.125 8.359 9.27 9.27 0 01-4.247 1.015 9.279 9.279 0 01-4.235-1.007 9.374 9.374 0 01-2.396-1.739 9.31 9.31 0 01-2.747-6.628V18.75zm5.336 14.815c1.284.495 2.639.748 4.042.748 1.409 0 2.769-.255 4.058-.756l.595 2.328a4.67 4.67 0 01-4.644 4.053 4.67 4.67 0 01-4.644-4.052l.593-2.321zM39 24c0 .517-.42.938-.935.938H35.25V18.75h2.815c.516 0 .935.42.935.938V24zM24.003 1.875c7.235 0 13.122 5.888 13.122 13.125v1.875h-1.872c0-6.216-5.03-11.25-11.25-11.25-6.203 0-11.25 5.047-11.25 11.25h-1.878V15c0-7.252 5.872-13.125 13.128-13.125zM9 24v-4.313a.94.94 0 01.94-.937h2.81v6.188H9.94A.94.94 0 019 24zm5.093 4.403a11.288 11.288 0 004.147 4.322l-.604 2.364-5.695.739a4.702 4.702 0 01-2.889-3.508 6.624 6.624 0 005.041-3.917zm-2.251 9.328l.103-.014h.003l5.73-.743a6.54 6.54 0 006.334 4.839 6.539 6.539 0 006.333-4.84l5.836.758c4.11.534 6.569 3.614 6.569 7.272v1.122H5.25v-1.12c0-3.59 2.457-6.737 6.592-7.274z" fill="#17696A"/><path d="M21.497 28.944c.787.37 1.63.56 2.506.56.855 0 1.682-.181 2.458-.537a.937.937 0 10-.783-1.704 3.99 3.99 0 01-1.675.365 3.972 3.972 0 01-1.707-.38.937.937 0 10-.799 1.696zM32.441 43.688h3.75a.937.937 0 100-1.876h-3.75a.937.937 0 100 1.876zM39.938 41.813a.938.938 0 11-.001 1.875.938.938 0 010-1.876z" fill="#17696A"/></svg>
